icons/google-scholar.svg

<svg xmlns="http://www.w3.org/2000/svg"  viewBox="0 0 24 24" width="384px" height="384px"><path d="M 11 4 L 3 9 L 8.4921875 9 C 8.4715892 9.0754986 8.4383718 9.1441171 8.421875 9.2226562 C 8.375875 9.4646562 8.3398437 9.7308125 8.3398438 10.007812 C 8.3398438 13.578812 11.990234 13.175781 11.990234 13.175781 L 11.990234 14.085938 C 11.990234 14.454937 12.47425 14.327172 12.53125 15.076172 C 12.28925 15.076172 7.4746094 14.937547 7.4746094 18.185547 C 7.4746094 21.445547 11.724609 21.285156 11.724609 21.285156 C 11.724609 21.285156 16.632812 21.504656 16.632812 17.472656 C 16.634813 15.063656 13.822266 14.2795 13.822266 13.3125 C 13.822266 12.3335 15.941406 12.045906 15.941406 9.7539062 C 15.941406 8.7519062 15.872828 8.03825 15.423828 7.53125 C 15.388828 7.49625 15.366031 7.4722188 15.332031 7.4492188 C 15.324304 7.4420199 15.31448 7.4367774 15.306641 7.4296875 L 15.429688 7.4296875 L 17.5 5.8769531 L 17.5 8 A 0.50005 0.50005 0 0 0 17.511719 8.1152344 A 1.0001 1.0001 0 0 0 17 9 L 17 10 A 1.0001 1.0001 0 1 0 19 10 L 19 9 A 1.0001 1.0001 0 0 0 18.488281 8.1152344 A 0.50005 0.50005 0 0 0 18.5 8 L 18.5 5.125 L 20 4 L 11 4 z M 11.691406 7.0527344 C 11.979219 7.0397031 12.268922 7.109625 12.544922 7.265625 C 12.751922 7.369625 12.946141 7.518125 13.119141 7.703125 C 13.476141 8.060125 13.7765 8.5784531 13.9375 9.1894531 C 14.3175 10.640453 13.823828 12.035781 12.798828 12.300781 C 11.784828 12.587781 10.654672 11.641172 10.263672 10.201172 C 10.090672 9.4991719 10.114547 8.8202969 10.310547 8.2792969 C 10.312395 8.2723193 10.316443 8.2666961 10.318359 8.2597656 C 10.321722 8.2581149 10.32682 8.253536 10.330078 8.2519531 C 10.386262 8.0380596 10.478099 7.8461668 10.589844 7.6875 C 10.795388 7.3872165 11.066477 7.1838352 11.404297 7.09375 C 11.499297 7.07075 11.595469 7.0570781 11.691406 7.0527344 z M 12.082031 15.685547 C 13.775031 15.558547 15.216313 16.490813 15.320312 17.757812 C 15.390313 19.013813 14.087812 20.131094 12.382812 20.246094 C 10.689813 20.361094 9.2274844 19.441547 9.1464844 18.185547 C 9.0654844 16.918547 10.377031 15.812547 12.082031 15.685547 z"/></svg>

<svg xmlns="http://www.w3.org/2000/svg" xmlns:xlink="http://www.w3.org/1999/xlink" viewBox="0,0,256,256" width="384px" height="384px" fill-rule="nonzero"><g fill="#339af0" fill-rule="nonzero" stroke="none" stroke-width="1" stroke-linecap="butt" stroke-linejoin="miter" stroke-miterlimit="10" stroke-dasharray="" stroke-dashoffset="0" font-family="none" font-weight="none" font-size="none" text-anchor="none" style="mix-blend-mode: normal"><g transform="scale(10.66667,10.66667)"><path d="M11,4l-8,5h5.49219c-0.0206,0.0755 -0.05382,0.14412 -0.07031,0.22266c-0.046,0.242 -0.08203,0.50816 -0.08203,0.78516c0,3.571 3.65039,3.16797 3.65039,3.16797v0.91016c0,0.369 0.48402,0.24123 0.54102,0.99023c-0.242,0 -5.05664,-0.13862 -5.05664,3.10938c0,3.26 4.25,3.09961 4.25,3.09961c0,0 4.9082,0.2195 4.9082,-3.8125c0.002,-2.409 -2.81055,-3.19316 -2.81055,-4.16016c0,-0.979 2.11914,-1.26659 2.11914,-3.55859c0,-1.002 -0.06858,-1.71566 -0.51758,-2.22266c-0.035,-0.035 -0.0578,-0.05903 -0.0918,-0.08203c-0.00773,-0.0072 -0.01755,-0.01244 -0.02539,-0.01953h0.12305l2.07031,-1.55273v2.12305c-0.00057,0.03874 0.00336,0.07741 0.01172,0.11523c-0.31978,0.17891 -0.51611,0.51837 -0.51172,0.88477v1c-0.0051,0.36064 0.18438,0.69608 0.49587,0.87789c0.3115,0.18181 0.69676,0.18181 1.00825,0c0.3115,-0.18181 0.50097,-0.51725 0.49587,-0.87789v-1c0.00439,-0.3664 -0.19194,-0.70586 -0.51172,-0.88477c0.00836,-0.03783 0.01229,-0.0765 0.01172,-0.11523v-2.875l1.5,-1.125zM11.69141,7.05273c0.28781,-0.01303 0.57752,0.05689 0.85352,0.21289c0.207,0.104 0.40122,0.2525 0.57422,0.4375c0.357,0.357 0.65736,0.87533 0.81836,1.48633c0.38,1.451 -0.11367,2.84633 -1.13867,3.11133c-1.014,0.287 -2.14416,-0.65961 -2.53516,-2.09961c-0.173,-0.702 -0.14912,-1.38088 0.04688,-1.92188c0.00185,-0.00698 0.0059,-0.0126 0.00781,-0.01953c0.00336,-0.00165 0.00846,-0.00623 0.01172,-0.00781c0.05618,-0.21389 0.14802,-0.40579 0.25977,-0.56445c0.20554,-0.30028 0.47663,-0.50366 0.81445,-0.59375c0.095,-0.023 0.19117,-0.03667 0.28711,-0.04102zM12.08203,15.68555c1.693,-0.127 3.13428,0.80527 3.23828,2.07227c0.07,1.256 -1.2325,2.37328 -2.9375,2.48828c-1.693,0.115 -3.15533,-0.80455 -3.23633,-2.06055c-0.081,-1.267 1.23055,-2.373 2.93555,-2.5z"></path></g></g></svg>
